X:3
T:Chester Quick Step, The
S:John Moore's Book 3
Z:Transcribed by Steve Mansfield 05/2021
%%VWML: Moore1-4495-p2-0
F:https://www.vwml.org/record/Moore3/4495/p2
M:6/8
L:1/8
K:D
A | d2d ede | faf e2f | geg fdf | eaa a2A | 
d2d ede | faf efg | fad egc | d2d d2 :|
|: a | a2f f2a | g2e e2g | fdf afd | e2e e2a | 
a2f f2a | g2e e2g | fad egc | d2d d2 :|

